X: 31037
T: Paddy Carey
R: jig
M: 6/8
K: Dmajor
.A|(A2d) {e}dc.d|(f2d)d d2d|(B2e) e2f|.g2.e (dc).A|
(A2 d) {e}(dc).d|(f2d) .d2.d|(cB).A (AB).c|(de).f (e2d)||
|:(d2f) (a2b)|(a2b) (af).d|(d2f) (a2b)|(af).d e2z|
(d2f) (a2b)|(a2b) (af).d|(dc).B (AB).c|(de).f {f}(e2d):|

